launcher/android/assets/skins/day/svg/star0.svg

<svg enable-background="new 0 0 54.06 51.56" height="51.557" viewBox="0 0 54.06 51.56" width="54.0621" xmlns="http://www.w3.org/2000/svg" xmlns:xlink="http://www.w3.org/1999/xlink"><radialGradient id="a" cx="39.3898" cy="47.7161" gradientTransform="matrix(.990935752716 .134336644252 -.134336644252 .990935752716 6.767064497594 -4.858989034645)" gradientUnits="userSpaceOnUse" r="49.801"><stop offset="0" stop-color="#ccd3d3"/><stop offset=".387213" stop-color="#cad1d1"/><stop offset=".520927" stop-color="#c9cfcf"/><stop offset=".706977" stop-color="#dde8e8"/><stop offset=".916279" stop-color="#dfeaea"/><stop offset=".986046" stop-color="#e1eded"/></radialGradient><path d="m26.9518.749992-6.0966 19.158608-20.1052.0448 16.3369 11.7185-6.1702 19.1351 16.1934-11.9162 16.2918 11.7813-6.3289-19.0831 16.2391-11.8538-20.1049.1221z" fill="url(#a)" stroke="#c9cfcf" stroke-linecap="round" stroke-linejoin="round" stroke-width="1.5"/></svg>

﻿<?xml version="1.0" encoding="utf-8"?>
<!DOCTYPE svg PUBLIC "-//W3C//DTD SVG 1.1//EN" "http://www.w3.org/Graphics/SVG/1.1/DTD/svg11.dtd">
<svg xmlns="http://www.w3.org/2000/svg" xmlns:xlink="http://www.w3.org/1999/xlink" version="1.1" baseProfile="full" width="54.0621" height="51.557" viewBox="0 0 54.06 51.56" enable-background="new 0 0 54.06 51.56" xml:space="preserve">
	<radialGradient id="SVGID_Fill1_" cx="39.3898" cy="47.7161" r="49.801" gradientUnits="userSpaceOnUse" gradientTransform="rotate(7.720263 39.389847 47.716133)">
		<stop offset="0" stop-color="#CCD3D3" stop-opacity="1"/>
		<stop offset="0.387213" stop-color="#CAD1D1" stop-opacity="1"/>
		<stop offset="0.520927" stop-color="#C9CFCF" stop-opacity="1"/>
		<stop offset="0.706977" stop-color="#DDE8E8" stop-opacity="1"/>
		<stop offset="0.916279" stop-color="#DFEAEA" stop-opacity="1"/>
		<stop offset="0.986046" stop-color="#E1EDED" stop-opacity="1"/>
	</radialGradient>
	<path fill="url(#SVGID_Fill1_)" stroke-width="1.5" stroke-linecap="round" stroke-linejoin="round" stroke="#C9CFCF" stroke-opacity="1" d="M 26.9518,0.749992L 20.8552,19.9086L 0.75,19.9534L 17.0869,31.6719L 10.9167,50.807L 27.1101,38.8908L 43.4019,50.6721L 37.073,31.589L 53.3121,19.7352L 33.2072,19.8573L 26.9518,0.749992"/>
</svg>
